images/favicon.svg

<svg width="270" height="270" fill="none" xmlns="http://www.w3.org/2000/svg"><g clip-path="url(#clip0_2449_11)"><path d="M135 270c74.558 0 135-60.442 135-135C270 60.442 209.558 0 135 0 60.442 0 0 60.442 0 135c0 74.558 60.442 135 135 135z" fill="#fff"/><path d="M124.376 76l-18.094 10.457 41.872 24.212-45.093 25.907-41.872-24.212L43 122.727l42.062 24.306v53.416l9.094-4.428 9 14.979v-53.793l62.997-36.176 41.967 24.212 18.094-10.363L124.376 76z" fill="#3C3C3B"/><path d="M110.828 161.918l34.009 19.689 18.095-10.457-33.915-19.595-18.189 10.363z" fill="#3C3C3B"/></g><defs><clipPath id="clip0_2449_11"><path fill="#fff" d="M0 0h270v270H0z"/></clipPath></defs></svg>

<svg width="270" height="270" viewBox="0 0 270 270" fill="none" xmlns="http://www.w3.org/2000/svg">
<g clip-path="url(#clip0_2449_11)">
<path d="M135 270C209.558 270 270 209.558 270 135C270 60.4416 209.558 0 135 0C60.4416 0 0 60.4416 0 135C0 209.558 60.4416 270 135 270Z" fill="white"/>
<path d="M124.376 76L106.282 86.4571L148.154 110.669L103.061 136.576L61.1888 112.364L43 122.727L85.0616 147.033V200.449L94.156 196.021L103.156 211V157.207L166.153 121.031L208.12 145.243L226.214 134.88L124.376 76Z" fill="#3C3C3B"/>
<path d="M110.828 161.918L144.837 181.607L162.932 171.15L129.017 151.555L110.828 161.918Z" fill="#3C3C3B"/>
</g>
<defs>
<clipPath id="clip0_2449_11">
<rect width="270" height="270" fill="white"/>
</clipPath>
</defs>
</svg>
